X:1379
T:Uti gröna lunden
T: (Mora långdans)
S:Efter Markus Svensson
Z:[[http://www.bluerose.karenlmyers.org/IncipitsLangdans2.html|Karen Myers (#2473)]]
Z:Upptecknad 6/2007
M:3/4
L:1/8
R:Långdans
K:D
D3 E FG | A2 A2 B2 | A2 F2 G2 |1 A4 A2 :|2 A4 F2 ||
|:F2 A2 G2 | E2 G2 F2 | D2 F2 E2 | D4 F2 :|
W:Mitt uti den gröna lunden, där dansar ett par,
W:Den ena var vãnnen, (å) den andra var ja.
(:musicend:)

(:music:)
